!!!OTL: The Gard'ner Wi' his Paidle 
!!!id: HA045
**kern
*clefF4
*k[f#c#g#]
*A:
*M2/2
{4e
=1
4.a
8b
4cc#
4dd
=2
4ee
8ff#
8ee
4.dd}
{8dd
=3
4cc#
8dd
8cc#
4b
4a
=4
4a
8.c#
16d
4e}
8r
{8e
=5
4a
4b
4cc#
4dd
=6
4ee
8ff#
8ee
4dd}
{8ee
8dd
=7
4cc#
8b
8a
8b
8cc#
8dd
8cc#
=8
2b
4a}
{8dd
8ee
=9
4ff#
4dd
4b
8cc#
8dd
=10
4ee
4cc#
4a}
{8b
8cc#
=11
4dd
4cc#
4b
4a
=12
8g#
8a
8cc#
8g#
4e}
8r
{8e
=13
4.a
8b
4cc#
4dd
=14
4ee
8ff#
8ee
4dd}
{8ee
8dd
=15
4cc#
8b
8a
8b
8cc#
8dd
8cc#
=16
2b
4a}
==
*-
!!!minrhy: 16
!!!meter: 2/2 
!!!cut: The Gard'ner Wi' his Paidle 
!!!key: HA045  16  A 2/2 
!!!bem: Vorschlge; Triller
!!!fog: a--b--av-bw-c--d--av-bw-
!! Haydn: Volksliedbearbeitungen, Bd1
